src/topics/icons/netlify.svg

<svg height="256" preserveAspectRatio="xMidYMid" viewBox="0 0 256 256" width="256" xmlns="http://www.w3.org/2000/svg"><path d="m153.094392 165.678589-62.7849809-13.120205c-.2680042.512008-.5560087 1.008015-.8760137 1.476023l57.1568926 83.377303 3.448054-3.444054 9.724152-60.468945c-3.308051-1.388022-5.79609-4.288067-6.668104-7.820122zm-22.904358-82.0732827c-2.352037 3.6080564-6.4121 5.9960937-11.036172 5.9960937-.712011 0-1.404022-.0720011-2.084033-.1800028l-28.6324472 44.8006998 76.4971952-32.920514c-.024-.308005-.092001-.596009-.092001-.912014 0-.6440105.088001-1.2680202.192003-1.8840299zm2.080033-8.1641275 37.064579 15.8482476c1.172018-.9160143 2.508039-1.5960249 3.976062-2.0080314l6.092095-37.8805919-23.208362-23.2083626-26.124409 40.8766387c1.25202 1.8480289 2.028032 4.0240629 2.200035 6.3720996zm77.665213 6.4921014-23.260363-23.2643635-5.056079 31.4084908c1.28802.6520101 2.436038 1.5200237 3.396053 2.5840403zm-55.728871 75.4731788c1.812029-3.276051 5.156081-5.540086 9.088142-5.844091l6.680105-41.548649c-.524008-.348005-.992016-.764012-1.452023-1.192019l-76.937202 33.112518c.1960031.804012.3320052 1.624025.3960062 2.476038zm62.06497-69.1330797-26.91242 11.5801809 66.401037 28.3884438.240004-.240004zm-48.092751 85.3493337-8.088127 50.284786 46.964734-46.964734-33.828528-7.064111c-1.292021 1.684027-3.024048 2.988047-5.048079 3.744059zm-91.2854265-12.928202c-1.7000266 0-3.328052-.292005-4.8520759-.808013l-15.6002437 24.412382-6.0280942-6.024094 14.7762309-23.120362c-.3680058-.452007-.704011-.928014-1.020016-1.416022l-26.7684182 11.52418-6.3440991-6.344099 29.3004578-12.612197-52.97282772-11.056173-7.24411319-7.248113 2.29203581-2.292036 61.0849545 12.752199c.708011-1.33602 1.6080251-2.56404 2.6680416-3.616056l-29.6484632-43.2446757 5.9880935-5.9880936 30.9764841 45.1847063c1.092017-.248004 2.2240347-.396006 3.392053-.396006 1.3080204 0 2.5760402.184002 3.7880591.496007l28.9844534-45.3527084c-2.272036-2.368037-3.676058-5.5760871-3.676058-9.1161424 0-1.0400162.132002-2.048032.360006-3.0160471l-36.1605653-15.4602416 6.3440991-6.3440991 34.2605352 14.6522289c2.276036-1.8720292 5.188081-2.9960468 8.364131-2.9960468 1.500023 0 2.940046.2640041 4.288067.7280114l26.724417-41.8246535-22.168346-22.1683464-128.002 128.002 128.002 128.002 12.596197-12.596197-57.5848999-84.009312c-1.8760293.828013-3.9440616 1.29602-6.1200956 1.29602zm101.2295815-48.888764-6.796106 42.23666c2.340037 1.888029 3.900061 4.652073 4.196066 7.812122l38.572602 8.052126 35.320552-35.320552-63.752996-27.256426c-1.788028 2.376037-4.46007 4.024063-7.540118 4.47607z" fill="#25c7b7"/></svg>

<?xml version="1.0" encoding="UTF-8" standalone="no"?>
<svg width="256px" height="256px" viewBox="0 0 256 256" version="1.1" xmlns="http://www.w3.org/2000/svg" xmlns:xlink="http://www.w3.org/1999/xlink" preserveAspectRatio="xMidYMid">
    <g>
        <path d="M153.094392,165.678589 L90.3094111,152.558384 C90.0414069,153.070392 89.7534024,153.566399 89.4333974,154.034407 L146.59029,237.41171 L150.038344,233.967656 L159.762496,173.498711 C156.454445,172.110689 153.966406,169.210644 153.094392,165.678589 L153.094392,165.678589 Z M130.190034,83.6053063 C127.837997,87.2133627 123.777934,89.6014 119.153862,89.6014 C118.441851,89.6014 117.74984,89.5293989 117.069829,89.4213972 L88.4373818,134.222097 L164.934577,101.301583 C164.910577,100.993578 164.842576,100.705574 164.842576,100.389569 C164.842576,99.7455585 164.930577,99.1215488 165.034579,98.5055391 L130.190034,83.6053063 L130.190034,83.6053063 Z M132.270067,75.4411788 L169.334646,91.2894264 C170.506664,90.3734121 171.842685,89.6934015 173.310708,89.281395 L179.402803,51.4008031 L156.194441,28.1924405 L130.070032,69.0690792 C131.322052,70.9171081 132.098064,73.0931421 132.270067,75.4411788 L132.270067,75.4411788 Z M209.93528,81.9332802 L186.674917,58.6689167 L181.618838,90.0774075 C182.906858,90.7294176 184.054876,91.5974312 185.014891,92.6614478 L209.93528,81.9332802 L209.93528,81.9332802 Z M154.206409,157.406459 C156.018438,154.130408 159.36249,151.866373 163.294551,151.562368 L169.974656,110.013719 C169.450648,109.665714 168.98264,109.249707 168.522633,108.8217 L91.585431,141.934218 C91.7814341,142.73823 91.9174362,143.558243 91.9814372,144.410256 L154.206409,157.406459 L154.206409,157.406459 Z M216.271379,88.2733793 L189.358959,99.8535602 L255.759996,128.242004 L256,128.002 L216.271379,88.2733793 L216.271379,88.2733793 Z M168.178628,173.622713 L160.090501,223.907499 L207.055235,176.942765 L173.226707,169.878654 C171.934686,171.562681 170.202659,172.866701 168.178628,173.622713 L168.178628,173.622713 Z M76.8932015,160.694511 C75.1931749,160.694511 73.5651495,160.402506 72.0411256,159.886498 L56.4408819,184.29888 L50.4127877,178.274786 L65.1890186,155.154424 C64.8210128,154.702417 64.4850076,154.22641 64.1690026,153.738402 L37.4005844,165.262582 L31.0564853,158.918483 L60.3569431,146.306286 L7.38411538,135.250113 L0.140002188,128.002 L2.432038,125.709964 L63.5169925,138.462163 C64.2250035,137.126143 65.1250176,135.898123 66.1850341,134.846107 L36.5365709,91.6014313 L42.5246644,85.6133377 L73.5011485,130.798044 C74.5931655,130.55004 75.7251832,130.402038 76.8932015,130.402038 C78.2012219,130.402038 79.4692417,130.58604 80.6812606,130.898045 L109.665714,85.5453366 C107.393678,83.1772996 105.989656,79.9692495 105.989656,76.4291942 C105.989656,75.389178 106.121658,74.3811622 106.349662,73.4131471 L70.1890967,57.9529055 L76.5331958,51.6088064 L110.793731,66.2610353 C113.069767,64.3890061 115.981812,63.2649885 119.157862,63.2649885 C120.657885,63.2649885 122.097908,63.5289926 123.445929,63.9929999 L150.170346,22.1683464 L128.002,0 L0,128.002 L128.002,256.004 L140.598197,243.407803 L83.0132971,159.398491 C81.1372678,160.226504 79.0692355,160.694511 76.8932015,160.694511 L76.8932015,160.694511 Z M178.122783,111.805747 L171.326677,154.042407 C173.666714,155.930436 175.226738,158.69448 175.522743,161.854529 L214.095345,169.906655 L249.415897,134.586103 L185.662901,107.329677 C183.874873,109.705714 181.202831,111.35374 178.122783,111.805747 L178.122783,111.805747 Z" fill="#25C7B7"></path>
    </g>
</svg>
